FINK
CUT[ES LEBEN DIE STUDENTEN]
REG[Europa, Mitteleuropa, Deutschland]
KEY[F0550  08  F 6/8]
MEL[3  3_33_3  3_.30
    3  2#_36_5  5_.4_
    3  2_22_2  2_.20
    2  2_34_5  6_.5_
    1  6_.606  5_.50
    5  4_34_5  3_.30
    1  6_.606  5_.50
    5  7_64_2  10330
    3  303543  20220
    2  202432  3_0_.
    1  6_.606  5_.50
    5  4_34_5  3__0
    1  6_.606  5_.50
    5  765432  1_0_. //] >>
FCT[Studenten - Lied, Geselligkeit]
